!!!!SEGMENT: pl-wn--mus-iii-72-560_zelenski-wladyslaw--marsz-uroczysty-op-44.krn
!!!cenid: 18xx:3721
!!!COM: Żeleński, Władysław
!!!COM-rismID: pe41024455
!!!CDT: 1837/07/06-1921/01/23
!!!CNT: Polish
!!!OTL: Marsz uroczysty op. 44
!!!PDT:
!!!AGN:
!!!SMS-siglum: PL-Wn
!!!SMS-shelfmark: Mus.III.72.560
!!!SMS-shelfwork: W
!!!SMS-variant:
!!!SMS-altvar:
!!!NIFC-rismSourceID:
!!!NIFC-islandoraID:
!!!URL-pdf-islandora:
!!!URL-scan: https://polona.pl/item/marsz-uroczysty-na-fortepian-op-44,NzA4OTIzNzc/0 @EN{Scan on Polona} @PL{Skany w portalu Polona}
!!!ONB-nifc:
!!!AIN: 2 piano
!!!key: b
**kern	**kern	**dynam
*part2	*part1	*part1
*staff2	*staff1	*
*I"Piano	*I"Fortepian.	*
*I'P-no	*I'P-no	*
*Ipiano	*Ipiano	*
*ICklav	*ICklav	*
*clefF4	*clefG2	*
*k[f#c#]	*k[f#c#]	*
*b:	*b:	*
*M4/4	*M4/4	*
*met(c)	*met(c)	*
!	!LO:TX:a:t=Tempo di Marcia maestoso.	!
4FFF#/ 4FF#	4r	p
=1	=1	=1
2.BBB/ 2.BB	4r	.
*	*clefF4	*
.	(8.D\L 8.B	<
.	16E\Jk 16c#	.
.	[2F#\) [2d	[[
4FFF#/ 4FF#	.	.
=2	=2	=2
2.BBB/ 2.BB	4F#\] 4d]	.
.	(8.E\L 8.G	>
.	16C#\Jk 16A	.
.	[2D\) [2B	]]
4GGG/ 4GG	.	.
=3	=3	=3
2.BBB/ 2.BB	8D\] 8B]	.
.	8r	.
*	*clefG2	*
!	!LO:TX:b:t=dolce	!
.	(8.B/L 8.d	.
.	16c#/Jk 16e	.
.	4d/) 4f#	.
4AAA/ 4AA	4c#/ 4f#	.
!LO:LB:g=original	!LO:LB:g=original	!
=4!|:	=4!|:	=4!|:
*	*^	*
4GGG/ 4GG	(4.f#/	2.B\	.
[4GG/ [4G	.	.	.
.	8d#X/	.	.
8.GG/L] 8.G]	4e/)	.	.
16AA/K 16A	.	.	.
8.GG/ 8.G	8.e/L	4B\	.
16FF#/Jk 16F#	16f#/Jk	.	.
=5	=5	=5	=5
4EE/ 4E	4.g/	2B\ 2e	<
4DD/ 4D	.	.	.
.	8g/	.	.
4CC#/ 4C#	[4g/	4c#\ [4e	.
[4BBB/ [4BB	8.d/L 8.e] 8.g]	4ryy	[ sf
.	16d/Jk 16e 16g 16dd	.	.
=6	=6	=6	=6
((4BBB/] 4BB]	2e/ 2g 2cc#	4..c#\	.
8.AAA#X/L)) 8.AA#X	.	.	.
16BBB/Jk 16BB	.	16B\	>
((4CC#/ 4C#	2A#X/ 2e 2f#	2ryy	.
8.FFF#/L)) 8.FF#	.	.	.
16FFF#/Jk 16FF#	.	.	.
=7	=7	=7	=7
2.BBB/ 2.BB	4B/ 4d 4f#	2F#\	] p
.	(8.B/L 8.d	.	.
.	16c#/Jk 16e	.	.
.	4d/) 4f#	2ryy	.
4AAA/ 4AA	4F#/ 4c# 4f#	.	.
!LO:LB:g=original	!LO:LB:g=original	!	!
=8	=8	=8	=8
4GGG/ 4GG	[2B/ [2b	4.f#\	<
2GG/ 2G	.	.	.
.	.	8d#X\	.
.	8.B/L] 8.e 8.b]	4ryy	.
.	16B/Jk 16b	.	.
4CC#/ 4C#	8.A/L 8.a	4e\	[
.	16G/Jk 16g	.	.
=9	=9	=9	=9
*	*	*^	*
4DD/ 4D	[4F#/ [4f#	(4e\	2.ryy	.
!	!LO:TX:b:t=espress.	!	!	!
2BBB/ 2BB	(12F#/L] 12f#]	4d\)	.	.
.	12G#X'/ 12g#X	.	.	.
.	12A'/J) 12a	.	.	.
.	4G#/ 4d 4g#	4ryy	.	.
4CC#/ 4C#	(6f#/	4c#\	12G#\L	.
.	.	.	12A\	.
.	12e#X/)	.	12B\J	.
*	*	*v	*v	*
=10	=10	=10	=10
4FFF#/ 4FF#	[2f#/	4A\ 4c#	>
2FF#/ 2F#	.	8.B\L 8.d	.
.	.	16G#X\Jk 16B	.
.	4f#/]	4A\ 4c#	.
4FFF#/ 4FF#	4r	4ryy	]
*	*v	*v	*
=11	=11	=11
2.BBB/ 2.BB	4r	p
!	!LO:TX:b:t=dolce	!
.	(8.B/L 8.d	.
.	16c#/Jk 16e	.
.	4d/) 4f#	.
4AAA/ 4AA	4c#/ 4f#	.
!LO:LB:g=original	!LO:LB:g=original	!
=12:|!	=12:|!	=12:|!
*	*^	*
4FFF#/ 4FF#	[2f#/	4A\ 4c#	.
2FF#/ 2F#	.	8.B\L 8.d	>
.	.	16G#X\Jk 16B	.
.	4f#/]	4A\ 4c#	.
4FFF#/ 4FF#	4r	4ryy	] ff
=13	=13	=13	=13
*^	*	*	*
2FF#/ 2F#	4rEE	8.r	8.ryy	ff
.	.	64G/LLLL	[16G\	<
.	.	64A/	.	.
.	.	64B/	.	.
.	.	64c#/JJJJ	.	.
.	2BB\	8.d/L	2G\_	[
.	.	16d/Jk	.	.
4EE/ 4E	.	(8.d/L	.	.
.	.	16B/Jk	.	.
4AAA/ 4AA	4ryy	8.G/L]) 8.c#	4ryy	.
.	.	16G/Jk 16c# 16e	.	.
*	*	*v	*v	*
=14	=14	=14	=14
8DD/ 8D	4ryy	8F#/ 8d 8f#	.
16rEE	.	8r	.
(64D\LLLL	.	.	.
64E\	.	.	.
64F#\	.	.	.
64G\JJJJ	.	.	.
8.A/L)	[4D\	8.f#/L 8.dd 8.ff#	.
16A#X/Jk	.	16e/Jk 16g 16cc#	>
8B/	8D\]	8.d/L 8.f# 8.dd	.
16rEE	8ryy	.	.
(80FF#/LLLL	.	16d/Jk 16f# 16cc#	.
80GG/	.	.	.
80AA/	.	.	.
80BB/	.	.	.
80C#/JJJJ	.	.	.
8.D/L)	4ryy	8.d/L 8.f# 8.b	.
16BB/Jk	.	16d/Jk 16f# 16a	]]
!LO:PB:g=original	!	!LO:PB:g=original	!
*v	*v	*	*
=15	=15	=15
*	*^	*
8E\	8B/ 8e 8g	4ryy	.
8r	16rc	.	.
*	*clefF4	*	*
.	(48D#X\LLL	.	ff
.	48E\	.	.
.	48F#\JJJ	.	.
2EEE/ 2EE	8.G/L)	[4BB\	.
.	16G/Jk	.	.
.	(8.G/L	4BB\]	.
.	16B/Jk	.	.
4EE/ 4E	8.A#X/L)	8.G\L	.
.	16A#/Jk 16c#	16G\Jk	.
*	*v	*v	*
=16	=16	=16
*^	*	*
8BBB/ 8BB	4ryy	8F#\ 8B 8d	.
16r	.	16r	.
(64BB/LLLL	.	16ryy	.
64C#/	.	.	.
64D/	.	.	.
64E/JJJJ	.	.	.
*	*	*clefG2	*
8.F#/L)	[4BB\	8.d/L 8.b 8.dd	.
16F#/Jk	.	16c#/Jk 16e 16a#X	.
16G/	16BB\]	8.B/L 8.d 8.b	>
16r	16ryy	.	.
(40DD/LLL	8ryy	.	.
40EE/	.	.	.
40FF#/	.	.	.
.	.	16c#/Jk 16e 16an	.
40GG/	.	.	.
40AA/JJJ	.	.	.
8.BB/L)	4ryy	8.B/L 8.d 8.g	.
16GG#X/Jk	.	16B/Jk 16d 16f#	]]
!LO:LB:g=original	!	!LO:LB:g=original	!
*v	*v	*	*
=17	=17	=17
*	*^	*
!	!LO:TX:b:t=poco	!	!
4C#\ 4G#X	2.e#X/	4.B\ 4.d	sfz
2CC#^/ 2C#	.	.	.
.	.	(8c#\	p
.	.	8.B\L)	.
.	.	16A\K	.
4CC#/ 4C#	4c#/ 4e#	8.G#X\	.
.	.	16B\Jk	.
=18	=18	=18	=18
4FFF#/ 4FF#	4.en/	[2A\ [2cn	.
[4FF#/ [4F#	.	.	.
.	(8a/	.	.
8.FF#/L] 8.F#]	8.gn/L)	8.A\L] 8.c]	.
16AA/K 16A	16f#/Jk	16c\Jk 16d#X	.
8.GG/ 8.G	8.B/L 8.d# 8.b	4ryy	<
16FF#/Jk 16F#	16B/Jk 16d# 16a	.	.
*	*v	*v	*
=19	=19	=19
8.EE/L 8.E	4..B/ 4..e 4..g	[
16FF#/K 16F#	.	.
8.EE/ 8.E	.	.
16DD/Jk 16D	16e/ 16g 16b	<
8.CCn/L 8.Cn	8.e/L 8.g 8.ee	.
16DD/K 16D	16d/Jk 16g 16dd	.
8.EE/ 8.E	8.cn/L 8.g 8.ccn	.
16EE#X/Jk 16E#X	16B/Jk 16d 16g 16b	[[
!LO:LB:g=original	!	!LO:LB:g=original
=20	=20	=20
*^	*^	*
(4F#/	2.FF#\	((2B/ 2d 2b	4f#\	>
4G#X/	.	.	4e#X\	.
4C#/) 4A#X	.	4c#/)) 4f# 4a#X	2ryy	.
4r	4FFF#\ 4FF#	4r	.	]
*v	*v	*	*	*
*	*v	*v	*
=21	=21	=21
4BBB/ 4BB	4r	ff
2BB\ 2F# 2B	(8.d/L 8.b 8.dd	.
.	16e/Jk 16cc# 16ee	.
.	4f#\) 4dd 4ff#	.
4AA\ 4F# 4A	4f#\ 4cc# 4ff#	.
=22	=22	=22
*	*^	*
4GG/ 4G	(4.f#/ 4.ff#	[2b\	.
[4GGG/ [4GG	.	.	.
.	8d#X/ 8dd#X	.	.
8.GGG/L] 8.GG]	4e/) 4b] 4ee	2ryy	.
16AA/K 16A	.	.	.
8.GG/ 8.G	8.e\L 8.b 8.ee	.	.
16FF#/Jk 16F#	16f#\Jk 16ddn 16ff#	.	.
=23	=23	=23	=23
4EE/ 4E	4.g/ 4.gg	2b\ 2ee	<
4DD/ 4D	.	.	.
.	8g/ 8gg	.	.
4CC#/ 4C#	([4g\ 4cc# [4ee [4gg	2ryy	.
[4BBB/ [4BB	8.g\L]) 8.dd 8.ee] 8.gg]	.	.
.	16dd\Jk 16ee 16gg 16ddd	.	.
!LO:LB:g=original	!LO:LB:g=original	!	!
=24	=24	=24	=24
4BBB/] 4BB]	2ee/ 2gg 2ccc#	4..cc#\	[
8.AAA#X/L 8.AA#X	.	.	.
16BBB/Jk 16BB	.	16b\	>
((4CC#/ 4C#	(([2f#\ 2a#X 2ee [2ff#	2ryy	.
8.FFF#/L)) 8.FF#	.	.	.
16FFF#/Jk 16FF#	.	.	.
=25	=25	=25	=25
2.BBB/ 2.BB	4f#\])) 4b 4dd 4ff#]	4ryy	]
.	(8.B/L 8.d	2F#\	p
.	16c#/Jk 16e	.	.
.	4d/) 4f#	.	.
4AAA/ 4AA	4F#/ 4c# 4f#	4ryy	.
=26	=26	=26	=26
4GGG/ 4GG	[2B/ [2b	4.f#\	.
2GG/ 2G	.	.	.
.	.	8d#X\	<
.	8.B/L] 8.e 8.b]	4ryy	.
.	16B/K 16b	.	.
4CC#/ 4C#	8.A/ 8.a	4e\	[
.	16G/Jk 16g	.	.
!LO:LB:g=original	!LO:LB:g=original	!	!
=27	=27	=27	=27
4DD/ 4D	([4f#/	4F#\ 4d	.
4EE/ 4E	12f#/L]	4G\ 4cn	.
.	12d#X/	.	.
.	12e/J)	.	.
*	*clefF4	*	*
4FF#/ 4F#	[4dn/	[4B\	>
4FFF#/ 4FF#	6B/] 6d]	12G\L	.
.	.	12F#\	.
.	12G/ 12A#X	12E\J	.
=28	=28	=28	=28
2.BBB/ 2.BB	[2B/	4D\ 4F#	]
.	.	8.E\L 8.G	p
.	.	16C#\Jk 16E	.
.	4B/]	4D\ 4F#	.
4FFF#/ 4FF#	4r	4ryy	f
=29:|!	=29:|!	=29:|!	=29:|!
2.BBB/ 2.BB	[2B/	4D\ 4F#	.
!LO:PB:g=original	!	!	!
.	.	8.E\L 8.G	p
.	.	16C#\Jk 16E	.
.	4B/]	4D\ 4F#	.
*	*clefG2	*	*
4r	([4f#/	4ryy	.
!	!LO:PB:g=original	!	!
*	*v	*v	*
=30	=30	=30
*k[f#c#g#d#a#]	*k[f#c#g#d#a#]	*
8BBB\L	4f#/]) 4dd#	.
(8F#'\	.	.
!	!LO:TX:b:t=dolce	!
8D#'\ 8B	(8.f#/L 8.b 8.dd#	.
8F#'\J)	.	.
.	16f#/Jk) 16b 16dd#	.
8BBB\L	4f#/ 4b 4dd#	.
(8F#'\	.	.
8D#'\ 8B	(8.f##X/L 8.b 8.dd#	.
8F##X'\J)	.	.
.	16f##/Jk) 16b 16dd#	.
=31	=31	=31
*	*^	*
8EE\L	(2dd#/	[2g#\ [2b	.
(8G#'\	.	.	.
8E'\ 8B	.	.	.
8G#'\J)	.	.	.
8EE\L	4cc#/)	4g#\] 4b]	.
(8G#'\	.	.	.
8E'\ 8B	(8.cc#/L	[4g#\ [4b	.
8D#'\J)	.	.	.
.	16dd#/Jk	.	.
=32	=32	=32	=32
8CC#\L	4ee/)	4g#\] 4b]	.
(8G#'\	.	.	.
8C#'\ 8B	(8.g#\L 8.b 8.ee	4ryy	.
8G#'\J)	.	.	.
.	16g#\Jk) 16b 16ee	.	<
8CC##X\L	4g#\ 4b 4ee	2ryy	.
(8G#'\	.	.	.
8C##X'\ 8B	(8.g#\L 8.b 8.ee	.	.
8G#'\J)	.	.	.
.	16g#\Jk) 16b 16ee	.	.
*	*v	*v	*
=33	=33	=33
8DD#\L	(2g#\ 2a# 2ee	[ >
(8A#'\	.	.
8D#'\ 8c#	.	.
8A#'\J)	.	.
8DD#\L	4f##X/) 4a# 4dd#	]
(8A#'\	.	.
8D#'\ 8c#	4f##/ 4cc# 4dd#	.
!	!LO:LB:g=original	!
8A#'\J)	.	.
!LO:LB:g=original	!	!
=34	=34	=34
*	*^	*
8EE\L	4g#\ 4b 4gg#	2ryy	.
(8B'\	.	.	.
8G#'\ 8e	(8.g#\L 8.b 8.gg#	.	.
8B'\J)	.	.	.
.	16g#\Jk) 16b 16gg#	.	.
8CC##X\L	([4gg#/	2g#\ 2a#	<
(8B'\	.	.	.
8G#'\ 8e#X	12gg#/L]	.	.
.	12ff#/	.	.
8B'\J)	.	.	.
.	12ee#X/J)	.	.
=35	=35	=35	=35
8DD#\L	[2ff#/	([2f#\ 2a#	.
(8A#'\	.	.	.
8F#'\ 8d#	.	.	.
8A#'\J)	.	.	.
8BBB#X\L	8.ff#/L]	8.f#\L]) 8.an	[
(8An'\	.	.	.
.	16ff#/Jk	16f#\K 16a	.
8F#'\ 8d#	8.een/L	8.f#\ 8.a	.
8A'\J)	.	.	.
.	16dd#/Jk	16f#\Jk 16a	.
=36	=36	=36	=36
8CC#\L	(4.ee/	[2e\ [2g#	.
(8G#'\	.	.	.
8E'\ 8c#	.	.	.
8G#'\J)	8dd#/	.	.
8CC#\L	8.e/L]) 8.g#] 8.cc#	2ryy	<
(8G#'\	.	.	.
.	16e/K 16g#	.	.
8E'\ 8c#	8.e/ 8.g# 8.a#	.	.
8G#'\J)	.	.	.
.	16e/Jk 16g# 16b	.	[
=37	=37	=37	=37
8FF#\L	2b/	(4d#\ 4f#	>
(8F#'\	.	.	.
8B'\	.	4dn\ 4e#X	.
8F#'\J)	.	.	.
4FF#/	4f#/ 4a#	4c#\)	.
4r	4f#/ 4ff#	4ryy	] p
!LO:LB:g=original	!LO:LB:g=original	!	!
*	*v	*v	*
=38	=38	=38
12GGG#\L	4dd#\ 4ddd#	.
(12F#'\	.	.
12B'\	.	.
12d#'\	(8.dd#\L 8.ff# 8.ddd#	.
12B'\	.	.
12F#'\J)	.	.
.	16dd#'\Jk) 16ff# 16ddd#	.
12GGG#\L	4dd#\ 4ff# 4ddd#	.
(12F#'\	.	.
12B'\	.	.
12d#'\	(8.dd#\L 8.ff##X 8.ddd#	.
12B'\	.	.
12F##X'\J)	.	.
.	16dd#'\Jk) 16ff## 16ddd#	.
=39	=39	=39
*^	*	*
12EE\L	4ryy	((2dd#\ 2gg# 2ddd#	<
(12G#\	.	.	.
12A#X\J	.	.	.
12B#X/L	[4E^\	.	.
12c#/	.	.	.
12d#/J	.	.	.
12e/L)	4E\]	4ee\)) 4gg# 4ccc#	[
12GG#'/ 12G#	.	.	.
12FF#'/J 12F#	.	.	.
12EE'/L 12E	4ryy	8.cc#\L 8.gg# 8.ccc#	.
12FF#'/ 12F#	.	.	.
12DD#'/J 12D#	.	.	.
.	.	16dd#\Jk 16gg# 16ddd#	.
*v	*v	*	*
=40	=40	=40
12CC#\L 12C#	4ee\ 4gg# 4eee	<
(12G#'\	.	.
12B'\	.	.
12e'\	(8.ee\L 8.gg# 8.eee	.
12B'\	.	.
12G#'\J)	.	.
.	16ee'\Jk) 16gg# 16eee	.
12CC##X\L 12C##X	4ee\ 4gg# 4eee	.
(12G#'\	.	.
12B'\	.	.
12e'\	(8.ee\L 8.gg# 8.eee	.
12B'\	.	.
12G#'\J)	.	.
.	16ee'\Jk) 16gg# 16eee	[[
=41	=41	=41
12DD#\L 12D#	(2ee\ 2gg# 2eee	>
(12A#\	.	.
12B\	.	.
12c#\	.	.
12A#\	.	.
12G#\J	.	.
12F##X/L)	4dd#\) 4aa# 4ddd#	]
12DD#/ 12D#	.	.
12FF##X'/ 12F##	.	.
!	!LO:TX:b:t=espress.	!
12AA#'/ 12A#	4dd#\ 4ff##X 4ccc# 4ddd#	.
!	!	!LO:LB:g=original
12FF##'/ 12F##	.	.
12DD#'/J 12D#	.	.
!LO:LB:g=original	!	!
=42	=42	=42
*	*8va	*
12EE\L 12E	4gg#\ 4bb 4ggg#	.
(12G#'\	.	.
12B'\	.	.
12e'\	8.gg#\L 8.bb 8.ggg#	.
12B'\	.	.
12G#'\J)	.	.
.	16gg#\Jk 16bb 16ggg#	.
12CC##X\L 12C##X	([4gg#\ [4aa# [4ggg#	.
(12G#'\	.	.
12A#'\	.	.
12e#X'\	12gg#\L] 12aa#] 12ggg#]	.
12A#'\	12ff#\ 12fff#	.
12G#'\J)	12ee#X\J 12eee#X	.
=43	=43	=43
12DD#\L 12D#	4gg#\) 4aa# 4ggg#	.
(12F#'\	.	.
12A#'\	.	.
12d#'\	[4ff#\ [4aa# [4fff#	.
12A#'\	.	.
12F#'\J)	.	.
12BBB#X\L 12BB#X	8.ff#\L] 8.aa#] 8.fff#]	.
(12F#'\	.	.
12A#'\	.	.
.	16ff#\K 16aa# 16fff#	.
12d#'\	8.ee#X\ 8.aa# 8.eee#X	.
12A#'\	.	.
12F#'\J)	.	.
.	16ff#\Jk 16aa# 16fff#	.
*	*X8va	*
=44	=44	=44
12CC#\L 12C#	((4.g#\ 4.ff# 4.gg#	<
(12G#'\	.	.
12B'\	.	.
12f#'\	.	.
12B'\	.	.
.	8a#\)) 8ff# 8aa#	.
12G#'\J)	.	.
12CC#\L 12C#	(4b\ 4ff# 4bb	[
(12G#'\	.	.
12B'\	.	.
12e#X'\	8.a#\L) 8.ee#X 8.aa#	.
12B'\	.	.
12G#'\J)	.	.
.	16e#X\Jk 16ee#	.
=45	=45	=45
*^	*^	*
12FF#/L 12F#	4ryy	((2g#/ 2gg#	4rff	>
12F#/	.	.	.	.
12B/J	.	.	.	.
(4e#X/	12d#\L	.	((4b\ 4ddn	]
.	12B\	.	.	.
.	12F#\J	.	.	.
4A#\) 4c#	2ryy	4f#\)))) 4a# 4cc# 4ff#	2ryy	.
4rGG	.	4f#/	.	.
!LO:LB:g=original	!	!LO:LB:g=original	!	!
=46:|!	=46:|!	=46:|!	=46:|!	=46:|!
12FF#\L	4ryy	((2g#/ 2gg#	4rff	>
12F#\	.	.	.	.
12B\J	.	.	.	.
(4e#X/	12dn\L	.	((4b\ 4ddn	]
.	12B\	.	.	.
.	12F#\J	.	.	.
8c#/)	8A#\	8f#/)))) 8a# 8cc# 8ff#	2ryy	.
8r	8ryy	8re	.	.
8.F#\L	4ryy	8.f#/L 8.ff#	.	ff
16F#\Jk	.	16f#/Jk 16ff#	.	.
=47!|:	=47!|:	=47!|:	=47!|:	=47!|:
[2F#/	4r	[2f#/ [2ff#	4re	.
.	8.FF#\L 8.F#	.	8.An^\L 8.d#	.
.	16EE\Jk 16E	.	16A\Jk 16c#	.
12F#/L]	8DD#\ 8D#	12f#/L] 12ff#]	8A#X\ 8B	.
(12F#'/	.	(12f#'/ 12ff#	.	.
.	8r	.	8re	.
12G#'/J	.	12g#'/J 12gg#	.	.
12An'/L	4r	12an'/L 12aan	4re	.
12G#'/	.	12g#'/ 12gg#	.	.
12F#'/J)	.	12f#'/J) 12ff#	.	.
=48	=48	=48	=48	=48
*	*	*	*^	*
[2f#/	4r	[2ff#/ [2fff#	4r	4ryy	.
.	8.DD#\L 8.D#	.	[4An/ [4f#	8.B#X\L	.
.	16CC#\Jk 16C#	.	.	16c#\Jk	.
12f#/L]	8BBB#X\ 8BB#X	12ff#/L] 12fff#]	8A/] 8d# 8f#]	2ryy	.
(12F#'/	.	(12f#'/ 12ff#	.	.	.
.	8r	.	8rg	.	.
12G#'/J	.	12g#'/J 12gg#	.	.	.
12An'/L	4r	12an'/L 12aan	4rg	.	.
12G#'/	.	12g#'/ 12gg#	.	.	.
12F#'/J)	.	12f#'/J) 12ff#	.	.	.
*	*	*	*v	*v	*
=49	=49	=49	=49	=49
8f#/	4r	8ff#\ 8fff#	4ryy	.
8ryy	.	8r	.	.
(8.DD#\L 8.D#	4ryy	(8.f#/L	[4An\ 4B#X	p
16FF#\Jk 16F#	.	16d#/Jk	.	.
8EE\) 8E	4ryy	8e/)	8A\] 8c#	.
8r	.	8r	8ryy	.
(8.F#/L	4EEE\ 4EE	(4dn/ 4e	4ryy	.
!	!	!LO:PB:g=original	!	!
16G#/Jk)	.	.	.	.
!LO:PB:g=original	!	!	!	!
=50	=50	=50	=50	=50
8AAAn\ 8AAn	4ryy	8An/) 8c# 8e	4ryy	.
8r	.	8r	.	.
!LO:TX:a:t=dolce	!	!	!	!
(8.d#X/L	[4An\ 4B#X	8.ff#/L	[4an\ 4b#X	.
16f#/Jk	.	16dd#X/Jk	.	.
8e/)	8A\] 8c#	8ee/	8a\] 8cc#	.
8r	8ryy	8r	8r	.
8.A/L	4r	8.a/L 8.aan	4r	ff
16A/Jk	.	16a/Jk 16aa	.	.
=51	=51	=51	=51	=51
[2An/	4r	[2an/ [2aan	4r	.
.	8.AAn^\L 8.A	.	8.cn^\L 8.f#	.
.	16GGn\Jk 16Gn	.	16c\Jk 16e	.
12A/L]	8FF#\ 8F#	12a/L] 12aa]	8c\ 8d#	.
(12A'/	.	(12a'/ 12aa	.	.
.	8r	.	8r	.
12B'/J	.	12b'/J 12bb	.	.
12cn'/L	4r	12ccn'/L 12cccn	4r	.
12B'/	.	12b'/ 12bb	.	.
12A'/J)	.	12a'/J) 12aa	.	.
=52	=52	=52	=52	=52
*	*	*	*^	*
[2an/	4r	[2aan/ [2aaan	4r	4ryy	.
.	8.FF#^\L 8.F#	.	[4cn/ [4an	8.d#\L	.
.	16EE\Jk 16E	.	.	16e\Jk	.
12a/L]	8DD#\ 8D#	12aa/L] 12aaa]	8c\] 8f# 8a]	2ryy	.
(12An'/	.	(12a'/ 12aa	.	.	.
.	8r	.	8ryy	.	.
12B'/J	.	12b'/J 12bb	.	.	.
12cn'/L	4r	12ccn'/L 12cccn	4ryy	.	.
12B'/	.	12b'/ 12bb	.	.	.
12A'/J)	.	12a'/J) 12aa	.	.	.
*	*	*	*v	*v	*
=53	=53	=53	=53	=53
8an/	4r	8aan/ 8aaan	4r	.
8r	.	8r	.	.
8.FF#/L 8.F#	4ryy	(8.an/L	([4cn\ 4d#	p
16AAn/Jk 16An	.	16f#/Jk	.	.
8GGn/ 8Gn	2ryy	8gn/)	8c\]) 8e	.
8r	.	8r	8ryy	.
4GGGn/ 4GG	.	(4fn/ 4g	(8.An\L	.
!LO:LB:g=original	!	!LO:LB:g=original	!	!
.	.	.	16B\Jk	.
!	!	!	!LO:LB:g=original	!
=54	=54	=54	=54	=54
8CCn/ 8Cn	4ryy	8cn/)) 8e 8g#	4ryy	.
8r	.	8r	.	.
*clefG2	*	*	*	*
!	!	!LO:TX:b:t=dolce	!	!
8.f#/L	([4cn\ 4d#	([4ccn/ 4dd#	(8.aan/L	.
16a#/Jk	.	.	16ff#/Jk	.
*v	*v	*	*	*
12c/L]) 12e 12gn	12cc\L]) 12ee	8ggn/)	.
*clefF4	*	*	*
12CCn'/ 12Cn	12cn'\	.	ff
.	.	8ryy	.
12DDn'/J 12Dn	12dn'\J	.	.
12DD'/L 12E	12e'/L	4ryy	.
12CC'/ 12C	12c'/	.	.
12BBB'/J 12BB	12B'/J	.	.
=55	=55	=55	=55
8BBB-X/ 8BB-X	8B-X/	4ryy	.
8r	8r	.	.
(4B-X\ 4gn	(4ee/	(8.ddn\L 8.dddn	p
.	.	16bn\Jk 16bbn	.
12An/L) 12fn	12ccn/L)) 12ffn 12cccn	2ryy	.
12AAAn'/ 12AAn	12An'/	.	.
12BBBn'/J 12BBn	12Bn'/J	.	ff
12CCn'/L 12Cn	12cn'/L	.	.
12AAA'/ 12AA	12A'/	.	.
12GGGn'/J 12GGn	12Gn'/J	.	.
=56	=56	=56	=56
8FFF#X/ 8FF#X	8F#X/	4ryy	.
8r	8r	.	.
((4F#\ 4e	[4ee/	(8.ccn\L 8.cccn	p
.	.	16a#X\Jk 16aa#X	.
12Gn\L)) 12e	12b\L) 12ee] 12bb	2ryy	.
12GGGn'/ 12GGn	12Gn'/	.	ff
12AAAn'/J 12AAn	12An'/J	.	.
12BBB'/L 12BB	12B'/L	.	.
12GGG'/ 12GG	12G'/	.	.
12FFF#'/J 12FF#	12F#'/J	.	.
!LO:LB:g=original	!	!LO:LB:g=original	!
=57	=57	=57	=57
8EEE/ 8EE	8E/	4ryy	.
8r	8r	.	.
((4D#\ 4cn	8.an\L 8.aan	4cc#/	p
.	16f#\Jk 16ff#	.	.
12E\L)) 12B	12gn\L 12b 12ggn	2ryy	.
12EE'\ 12E	12e'\	.	ff
12FF#'\J 12F#	12f#'\J	.	.
12GGn'/L 12Gn	12g'/L	.	.
12EE'/ 12E	12e'/	.	.
12DDn'/J 12Dn	12dn'/J	.	.
=58	=58	=58	=58
8CC#X/ 8C#X	8c#X/	4ryy	.
8r	8r	.	.
[4GGn^/ [4C# [4Gn	8.c#^/L 8.cc#	[4e\	sfz
.	16B/Jk 16b	.	.
*	*v	*v	*
12GG/L] 12C#] 12G]	8A#X/ 8e] 8a#X	.
(12FF#'/ 12F#	.	.
.	8r	.
12EE'/J 12E	.	.
12DD#'/L 12D#	(4f#\ 4ff#	>
12EE'/ 12E	.	.
12CC#'/J) 12C#	.	.
=59	=59	=59
!	!LO:TX:b:t=dolce	!
12BBB\L 12BB	4dd#\) 4ff# 4ddd#	]
(12F#'\	.	.
12B'\J	.	.
12d#'\L	(8.dd#\L 8.ff# 8.ddd#	.
12B'\	.	.
12F#'\J)	.	.
.	16dd#\Jk) 16ff# 16ddd#	.
12BBB\L	4dd#\ 4ff# 4ddd#	.
(12F#'\	.	.
12B'\J	.	.
12d#'\L	(8.dd#\L 8.ff##X 8.ddd#	.
12B'\	.	.
12F##X'\J)	.	.
!LO:LB:g=original	!	!
.	16dd#\Jk) 16ff## 16ddd#	.
!	!LO:LB:g=original	!
=60	=60	=60
*^	*	*
12EE\L	4ryy	(((2dd#\ [2gg# 2ddd#	.
(12G#\	.	.	.
12A#X\J	.	.	.
12B#X/L	[4E\	.	.
12c#/	.	.	.
12d#/J	.	.	.
12E\L]) 12e	2ryy	4cc#\))) 4gg#] 4ccc#	.
12GG#'\ 12G#	.	.	.
12FF#'\J 12F#	.	.	.
12EE'/L 12E	.	8.cc#\L 8.gg# 8.ccc#	.
12FF#'/ 12F#	.	.	.
12DD#'/J 12D#	.	.	.
.	.	16dd#\Jk 16gg# 16ddd#	.
*v	*v	*	*
=61	=61	=61
12CC#\L 12C#	4ee\ 4gg# 4eee	.
(12G#'\	.	.
12B'\J	.	.
12e'\L	(8.ee\L 8.gg# 8.eee	<
12B'\	.	.
12G#'\J)	.	.
.	16ee'\Jk) 16gg# 16eee	.
12CC##X\L 12C##X	4ee\ 4gg# 4eee	.
(12G#'\	.	.
12B'\J	.	.
12e'\L	(8.ee\L 8.gg# 8.eee	.
12B'\	.	.
12G#'\J)	.	.
.	16ee'\Jk) 16gg# 16eee	[[
=62	=62	=62
12DD#\L 12D#	2ee\ 2gg# 2eee	>
(12A#\	.	.
12B\J	.	.
12c#\L	.	.
12A#\	.	.
12G#\J	.	.
12F##X/L)	4dd#\ 4aa# 4ddd#	] <
12DD#'/ 12D#	.	.
12FF##X'/J 12F##	.	.
12AA#'/L 12A#	4dd#\ 4ff##X 4ccc# 4ddd#	[[
12FF##'/ 12F##	.	.
12DD#'/J 12D#	.	.
=63	=63	=63
*	*8va	*
!	!LO:TX:b:t=espress.	!
12EE\L 12E	4gg#\ 4bb 4ggg#	.
(12G#'\	.	.
12B'\J	.	.
12e'\L	(8.gg#\L 8.bb 8.ggg#	.
12B'\	.	.
12G#'\J)	.	.
.	16gg#\Jk) 16bb 16ggg#	.
12EE##X\L 12E##X	([4gg#\ [4aa# [4ggg#	.
(12G#'\	.	.
12A#'\J	.	.
12e#X'\L	12gg#\L] 12aa#] 12ggg#]	.
12A#'\	12ff#\) 12fff#	.
12G#'\J)	12ee#X\J 12eee#X	.
!LO:LB:g=original	!LO:LB:g=original	!
=64	=64	=64
12DD#\L 12D#	(4gg#\ [4aa# 4ggg#	.
(12F#'\	.	.
12A#'\J	.	.
12d#'\L	[4ff#\) 4aa#] [4fff#	.
12A#'\	.	.
12F#'\J)	.	.
12BBB#X\L 12BB#X	8.ff#\L] 8.aan 8.fff#]	<
(12F#'\	.	.
12An'\J	.	.
.	16ff#\Jk 16aa 16fff#	.
12d#'\L	8.ee/L 8.aa 8.eee	[
12A'\	.	.
12F#'\J)	.	.
.	16dd#/Jk 16aa 16ddd#	.
*	*X8va	*
=65	=65	=65
12CC#\L 12C#	(4.ee\ 4.eee	.
(12E'\	.	.
12G#'\J	.	.
12c#'\L	.	.
12G#'\	.	.
.	8dd#\ 8ddd#	.
12E'\J)	.	.
12CC#\L 12C#	8.cc#\L) 8.gg# 8.ccc#	.
(12G#'\	.	.
12B'\J	.	.
.	(16g#\K 16gg#	.
12e'\L	8.a#\) 8.aa#	.
12B'\	.	.
12G#'\J)	.	.
.	(16b\Jk 16bb	.
=66	=66	=66
*^	*	*
12FF#\L	4ryy	4dd#\) 4ddd#	.
(12F#\	.	.	.
12B\J	.	.	.
12e\L	4gn/	(4a#\ 4ee 4aa#	p >
12d#\	.	.	.
12c#\J	.	.	.
8B\) 8d# 8f#	2ryy	8b\) 8dd# 8bb	.
8r	.	8r	]
8.F#\L	.	8.f#\L 8.ff#	ff
16F#\Jk	.	16f#\Jk 16ff#	.
=67:|!	=67:|!	=67:|!	=67:|!
4ryy	(12FF#\L	4dd#\ 4ddd#	.
.	12F#\	.	.
.	12B\J	.	.
4gn/	12e\L	(4a#\ 4ee 4aa#	.
.	12d#\	.	.
.	12c#\J)	.	.
4ryy	4B\ 4d# 4f#	4b\) 4dd# 4bb	.
4ryy	4FFF#/ 4FF#	4r	p
!LO:PB:g=original	!LO:PB:g=original	!	!
*v	*v	*	*
=68||	=68||	=68||
*k[f#c#]	*k[f#c#]	*
2.BBB/ 2.BB	4r	.
*	*clefF4	*
.	(8.D\L 8.B	p <
.	16E\Jk 16c#	.
.	[2F#\) [2d	[
4FFF#/ 4FF#	.	.
=69	=69	=69
2.BBB/ 2.BB	4F#\] 4d]	.
.	(8.E\L 8.G	>
.	16C#\Jk 16A	.
.	[2D\) [2B	]
4GGG/ 4GG	.	.
=70	=70	=70
2.BBB/ 2.BB	8D\] 8B]	.
.	8r	.
*	*clefG2	*
!	!LO:TX:b:t=dolce.	!
.	(8.B/L 8.d	.
.	16c#/Jk 16e	.
.	4d/) 4f#	.
4AAA/ 4AA	4c#/ 4f#	.
=71	=71	=71
*	*^	*
4GGG/ 4GG	(4.f#/	2.B\	.
[4GG/ [4G	.	.	.
.	8d#X/	.	.
8.GG/L] 8.G]	4e/)	.	.
16AA/K 16A	.	.	.
8.GG/ 8.G	8.e/L	4B\	.
16FF#/Jk 16F#	16dn/Jk 16f#	.	.
!LO:LB:g=original	!	!LO:LB:g=original	!
=72	=72	=72	=72
4EE/ 4E	4.g/	(2B\ 2e	<
4DD/ 4D	.	.	.
.	8g/	.	.
4CC#/ 4C#	[4g/	4c#\) [4e	.
[4BBB/ [4BB	8.d/L 8.e] 8.g]	4ryy	[ sfz
.	16d/Jk 16e 16g 16dd	.	.
=73	=73	=73	=73
4BBB/] 4BB]	2e/ 2g 2cc#	(4..c#\	.
8.AAA#X/L 8.AA#X	.	.	.
16BBB/Jk 16BB	.	16B\)	.
*	*v	*v	*
(4CC#/ 4C#	2A#X/ 2e 2f#	.
8.FFF#/L) 8.FF#	.	.
16FFF#/Jk 16FF#	.	.
=74	=74	=74
*	*^	*
2.BBB/ 2.BB	4B/ 4d 4f#	2.F#\	.
.	(8.B/L 8.d	.	p
.	16c#/Jk 16e	.	.
.	4d/) 4f#	.	.
4AAA/ 4AA	4F#/ 4c# 4f#	4ryy	.
=75	=75	=75	=75
4GGG/ 4GG	[2B/ [2b	(4.f#\	<
2GG/ 2G	.	.	.
.	.	8d#X\	.
.	8.B/L]) 8.e 8.b]	4ryy	.
.	16B/K 16b	.	.
4CC#/ 4C#	8.A/ 8.a	4e\	.
!LO:LB:g=original	!	!	!
.	16G/Jk 16g	.	[
!	!LO:LB:g=original	!	!
=76	=76	=76	=76
*	*	*^	*
4DD/ 4D	([4F#/ 4e [4f#	4ryy	2.ryy	.
!	!LO:TX:b:t=espress.	!	!	!
2BBB/ 2BB	(12F#/L]) 12f#]	4d\	.	.
.	12G#X/ 12g#X	.	.	.
.	12A/J) 12a	.	.	.
.	4G#/ 4d 4g#	4ryy	.	.
4CC#/ 4C#	(6f#/	4c#\	(12G#\L	.
.	.	.	12A\	.
.	12e#X/)	.	12B\J	.
*	*	*v	*v	*
=77	=77	=77	=77
4FFF#/ 4FF#	4A/) 4c#	2f#/	>
2FF#/ 2F#	8.B/L 8.d	.	.
.	16G#X/Jk 16B	.	.
.	4A/ 4c#	2ryy	.
4FFF#/ 4FF#	4r	.	] ff
=78	=78	=78	=78
*^	*	*	*
(2FF#/ 2F#	4r	8.r	8.ryy	.
.	.	64Gn/LLLL	[16G\	.
.	.	64A/	.	.
.	.	64B/	.	.
.	.	64c#/JJJJ	.	.
.	2BB\	8.d/L	2G\_	.
.	.	16d/Jk	.	.
4EE/) 4E	.	(8.d/L	.	.
.	.	16B/Jk	.	.
4AAA/ 4AA	4ryy	8.c#/L)	8.G\L]	.
!LO:LB:g=original	!	!	!	!
.	.	16e/Jk	16G\Jk 16c#	.
!	!	!LO:LB:g=original	!LO:LB:g=original	!
*	*	*v	*v	*
=79	=79	=79	=79
8DD/ 8D	4ryy	8F#/ 8d 8f#	.
16rEE	.	8r	.
(64D\LLLL	.	.	.
64E\	.	.	.
64F#\	.	.	.
64G\JJJJ	.	.	.
(8.A/L)	[4D\	8.f#/L 8.dd 8.ff#	.
16A#X/Jk	.	16e/Jk 16g 16cc#	.
8B/)	8D\]	8.d/L 8.f# 8.dd	.
16r	8ryy	.	.
(80FF#/LLLL	.	16d/Jk 16f# 16cc#	>
80GG/	.	.	.
80AA/	.	.	.
80BB/	.	.	.
80C#/JJJJ	.	.	.
8.D/L)	4ryy	8.d/L 8.f# 8.b	.
16BB/Jk	.	16d/Jk 16f# 16a	]]
*v	*v	*	*
=80	=80	=80
*	*^	*
8E\	8B/ 8e 8g	4ryy	.
8r	16r	.	.
*	*clefF4	*	*
.	(48D#X\LLL	.	ff
.	48E\	.	.
.	48F#\JJJ	.	.
2EEE/ 2EE	8.G/L)	[4BB\	.
.	16G/Jk	.	.
.	(8.G/L	4BB\]	.
.	16B/Jk	.	.
4EE/ 4E	8.A#X/L)	8.G\L	.
!LO:LB:g=original	!	!	!
.	16A#/Jk 16c#	16G\Jk	.
!	!LO:LB:g=original	!	!LO:LB:g=original
*	*v	*v	*
=81	=81	=81
*^	*	*
8BBB/ 8BB	4ryy	8F#\ 8B 8d	.
16rEE	.	8r	.
(64BB/LLLL	.	.	.
64C#/	.	.	.
64D/	.	.	.
64E/JJJJ	.	.	.
*	*	*clefG2	*
8.F#/L)	[4BB\	8.d/L 8.b 8.dd	>
16F#/Jk	.	16c#/Jk 16e 16a#X	.
8G/	8BB\]	8.B/L 8.d 8.b	.
16r	8ryy	.	.
(80DD/LLLL	.	16c#/Jk 16e 16an	.
80EE/	.	.	.
80FF#/	.	.	.
80GG/	.	.	.
80AA/JJJJ	.	.	.
8.BB/L)	4ryy	8.B/L 8.d 8.g	.
16GG#X/Jk	.	16B/Jk 16d 16f#	]]
*v	*v	*	*
=82	=82	=82
*	*^	*
!	!LO:TX:a:t=poco	!	!LO:DY:a
4C#\ 4G#X	2.e#X/	4.B\ 4.d	sfz
2CC#^/ 2C#	.	.	.
.	.	(8c#\	p
.	.	8.B\L)	.
.	.	16A\K	.
4CC#/ 4C#	4c#/ 4e#	8.G#X\	.
!LO:PB:g=original	!LO:PB:g=original	!	!
.	.	16B\Jk	.
!	!	!LO:PB:g=original	!
=83	=83	=83	=83
!	!LO:TX:b:t=poco	!	!
4FFF#/ 4FF#	4.en/	[2A\ [2cn	.
[4FF#^/ [4F#	.	.	.
.	(8a/	.	sfz
8.FF#\L] 8.F#]	8.gn/L)	8A\] 8c]	.
.	.	8ryy	.
16AA\K 16A	16c/Jk 16d#X 16f#	.	.
8.GG\ 8.G	8.B/L 8.d# 8.b	4ryy	.
16FF#\Jk 16F#	16B/Jk 16d# 16a	.	.
*	*v	*v	*
=84	=84	=84
8.EE/L 8.E	4..B/ 4..e 4..g	.
16FF#/K 16F#	.	.
8.EE/ 8.E	.	.
16DD/Jk 16D	16e/ 16g 16b	.
8.CCn/L 8.Cn	8.e/L 8.g 8.ee	<
16DD/K 16D	16d/K 16g 16dd	.
8.EE/ 8.E	8.cn/ 8.g 8.ccn	.
16EE#X/Jk 16E#X	16B/Jk 16d 16g 16b	[[
=85	=85	=85
*^	*^	*
(4F#/	2FF#\	(2B/ 2d 2b	(4f#\	>
4G#X/	.	.	4e#X\	.
4C#/) 4A#X	4ryy	4c#/)) 4f# 4a#X	2ryy	.
4r	4FFF#\ 4FF#	4r	.	] ff
!LO:LB:g=original	!LO:LB:g=original	!LO:LB:g=original	!	!
*v	*v	*	*	*
*	*v	*v	*
=86	=86	=86
4BBB/ 4BB	4r	.
2BB\ 2F# 2B	(8.d/L 8.b 8.dd	ff
.	16e/Jk 16cc# 16ee	.
.	4f#\) 4dd 4ff#	.
4AA\ 4F# 4A	4f#\ 4cc# 4ff#	.
=87	=87	=87
*	*^	*
4GG/ 4G	(4.f#/ 4.ff#	2b\	.
[4GGG^/ [4GG	.	.	.
.	8d#X/ 8dd#X	.	.
8.GGG/L] 8.GG]	4e/) 4b 4ee	2ryy	.
16AA/K 16A	.	.	.
8.GG/ 8.G	8.e/L 8.b 8.ee	.	.
16FF#/Jk 16F#	16f#/Jk 16ddn 16ff#	.	.
=88	=88	=88	=88
4EE/ 4E	4.g/ 4.gg	2b\ 2ee	<
4DD/ 4D	.	.	.
.	8g/ 8gg	.	.
4CC#/ 4C#	([4g\ 4cc# [4ee [4gg	2ryy	.
[4BBB/ [4BB	8.g\L]) 8.dd 8.ee] 8.gg]	.	.
!LO:LB:g=original	!	!	!
.	16dd\Jk 16ee 16gg 16ddd	.	[
!	!LO:LB:g=original	!	!
=89	=89	=89	=89
(4BBB/] 4BB]	2ee/ 2gg 2ccc#	(4..cc#\	>
8.AAA#X/L) 8.AA#X	.	.	.
16BBB/Jk 16BB	.	16b\)	.
(4CC#/ 4C#	[2f#\ 2a#X 2ee [2ff#	2ryy	.
8.FFF#/L) 8.FF#	.	.	.
16FFF#/Jk 16FF#	.	.	.
=90	=90	=90	=90
2.BBB/ 2.BB	4f#\] 4b 4dd 4ff#]	4ryy	]
.	(8.B/L 8.d	2F#\	p
.	16c#/Jk 16e	.	.
.	4d/) 4f#	.	.
4AAA/ 4AA	4F#/ 4c# 4f#	4ryy	.
=91	=91	=91	=91
4GGG/ 4GG	2B/ [2b	(4.f#\	.
2GG/ 2G	.	.	.
.	.	8d#X\	.
.	8.B/L) 8.e 8.b]	4ryy	<
.	16B/Jk 16b	.	.
4CC#/ 4C#	8.A/L 8.a	4e\	.
!LO:LB:g=original	!	!	!
.	16G/Jk 16g	.	.
!	!LO:LB:g=original	!	!
=92	=92	=92	=92
*^	*	*	*
4DD/ 4D	2.ryy	4F#/ 4d [4f#	4ryy	[
4EE/ 4E	.	12f#/L]	4G\ 4cn	.
.	.	12d#X/	.	.
.	.	12e/J	.	.
(4FF#/ 4F#	.	[4B/ [4dn	4ryy	.
12G/L	4FFF#\ 4FF#	6B/] 6d]	4ryy	.
12F#/)	.	.	.	.
12E/J	.	12G#X/ 12A	.	.
*v	*v	*	*	*
=93	=93	=93	=93
2.BBB/ 2.BB	8D/ 8F# 8B	4ryy	.
.	8r	.	.
*	*clefF4	*	*
.	(8.D\L 8.B	4B/	p
.	16E\Jk 16c#	.	.
.	[2F#\) [2B [2d	2ryy	.
4FFF#/ 4FF#	.	.	.
=94	=94	=94	=94
2.GGG/ 2.GG	4F#\] 4B] 4d]	4ryy	.
.	(8.E\L 8.c#	4B/	<
.	16F#\Jk 16d	.	.
.	[2E\) [2G [2e	2ryy	[
4EEE/ 4EE	.	.	.
=95	=95	=95	=95
2.BBB/ 2.BB	4E\] 4G] 4e]	4ryy	.
.	(8.D\L 8.B	4B/	p
.	16E\Jk 16c#	.	.
.	[2F#\) [2B [2d	2ryy	.
!	!LO:LB:g=original	!	!
4FFF#/ 4FF#	.	.	.
!LO:LB:g=original	!	!	!
=96	=96	=96	=96
2.GGG/ 2.GG	4F#\] 4B] 4d]	4ryy	.
.	8.E\L 8.c#	4B/	>
.	16F#\Jk 16d	.	.
.	[2G\ [2B [2e	2ryy	.
4EEE/ 4EE	.	.	.
=97	=97	=97	=97
2.BBB/ 2.BB	4G\] 4B] 4e]	4ryy	.
.	(8.D\L 8.B	4B/	.
.	16E\Jk 16c#	.	.
.	4F#\) 4B 4d	2ryy	.
*	*clefG2	*	*
4F#\	4f#\ 4ff#	.	] p
=98	=98	=98	=98
*^	*	*	*
[2B/	2r	[2b/ [2bb	2r	.
8B/]	4.BBB\ 4.FF# 4.BB	8b/] 8bb]	4.D\ 4.F# 4.B	pp
8r	.	8r	.	.
4r	.	4r	.	.
.	8BBB\ 8FF# 8BB	.	8D\ 8F# 8B	.
*v	*v	*	*	*
*	*v	*v	*
=99	=99	=99
2.BBB/ 2.FF# 2.BB	2.D/ 2.F# 2.B	.
4ryy	4ryy	.
==	==	==
*-	*-	*-
!!!system-decoration: [(s1,s2)]
!!!ENC: Berenika Jozajtis
!!!END: 2022-03-27
!!!ENC: Julita Ruszuk
!!!END: 2022-03-30
!!!YEC: Copyright 2022 Narodowy Instytut Fryderyka Chopina (https://polishscores.org)
!!!YEM: Licence CC BY 4.0 (https://creativecommons.org/licenses/by/4.0)
